icons/svg/shopping/e_cigarette.svg

<?xml version="1.0" encoding="UTF-8" standalone="no"?>
<!-- Created with Inkscape (http://www.inkscape.org/) -->

<svg
   xmlns:dc="http://purl.org/dc/elements/1.1/"
   xmlns:cc="http://creativecommons.org/ns#"
   xmlns:rdf="http://www.w3.org/1999/02/22-rdf-syntax-ns#"
   xmlns:svg="http://www.w3.org/2000/svg"
   xmlns="http://www.w3.org/2000/svg"
   xmlns:xlink="http://www.w3.org/1999/xlink"
   xmlns:sodipodi="http://sodipodi.sourceforge.net/DTD/sodipodi-0.dtd"
   xmlns:inkscape="http://www.inkscape.org/namespaces/inkscape"
   version="1.0"
   width="580"
   height="580"
   id="svg2"
   sodipodi:version="0.32"
   inkscape:version="0.91 r"
   sodipodi:docname="e_cigarette.svg"
   inkscape:output_extension="org.inkscape.output.svg.inkscape">
  <metadata
     id="metadata2975">
    <rdf:RDF>
      <cc:Work
         rdf:about="">
        <dc:format>image/svg+xml</dc:format>
        <dc:type
           rdf:resource="http://purl.org/dc/dcmitype/StillImage" />
        <cc:license
           rdf:resource="http://web.resource.org/cc/PublicDomain" />
        <dc:language>en</dc:language>
        <dc:title />
      </cc:Work>
    </rdf:RDF>
  </metadata>
  <sodipodi:namedview
     inkscape:window-height="1006"
     inkscape:window-width="1920"
     inkscape:pageshadow="2"
     inkscape:pageopacity="0.0"
     guidetolerance="10.0"
     gridtolerance="10.0"
     objecttolerance="10.0"
     borderopacity="1.0"
     bordercolor="#666666"
     pagecolor="#ffffff"
     id="base"
     inkscape:zoom="0.65172413"
     inkscape:cx="346.05609"
     inkscape:cy="325.11029"
     inkscape:window-x="1920"
     inkscape:window-y="0"
     inkscape:current-layer="svg2"
     showgrid="false"
     inkscape:window-maximized="1"
     showguides="true"
     inkscape:guide-bbox="true" />
  <defs
     id="defs4">
    <inkscape:perspective
       sodipodi:type="inkscape:persp3d"
       inkscape:vp_x="0 : 290 : 1"
       inkscape:vp_y="6.1230318e-14 : 1000 : 0"
       inkscape:vp_z="580 : 290 : 1"
       inkscape:persp3d-origin="290 : 193.33333 : 1"
       id="perspective2441" />
    <inkscape:perspective
       id="perspective3452"
       inkscape:persp3d-origin="30 : 20 : 1"
       inkscape:vp_z="60 : 30 : 1"
       inkscape:vp_y="0 : 1000 : 0"
       inkscape:vp_x="0 : 30 : 1"
       sodipodi:type="inkscape:persp3d" />
    <symbol
       viewBox="244.5 110 489 219.9"
       id="symbol-university">
      <path
         id="path4460"
         d="M79,43l57,119c0,0,21-96,104-96s124,106,124,106l43-133l82-17L0,17L79,43z" />
      <path
         id="path4462"
         d="M94,176l-21,39"
         stroke-width="20"
         stroke="#000000"
         fill="none" />
      <path
         id="path4464"
         d="M300,19c0,10.5-22.6,19-50.5,19S199,29.5,199,19s22.6-19,50.5-19S300,8.5,300,19z" />
      <path
         id="path4466"
         d="M112,216l-16-38L64,88c0,0-9-8-4-35s16-24,16-24"
         stroke-width="20"
         stroke="#000000"
         ill="none" />
    </symbol>
    <inkscape:perspective
       id="perspective4471"
       inkscape:persp3d-origin="372.04724 : 350.78739 : 1"
       inkscape:vp_z="744.09448 : 526.18109 : 1"
       inkscape:vp_y="0 : 1000 : 0"
       inkscape:vp_x="0 : 526.18109 : 1"
       sodipodi:type="inkscape:persp3d" />
    <inkscape:perspective
       id="perspective4668"
       inkscape:persp3d-origin="6 : 4 : 1"
       inkscape:vp_z="12 : 6 : 1"
       inkscape:vp_y="0 : 1000 : 0"
       inkscape:vp_x="0 : 6 : 1"
       sodipodi:type="inkscape:persp3d" />
    <inkscape:perspective
       id="perspective3826"
       inkscape:persp3d-origin="0.5 : 0.33333333 : 1"
       inkscape:vp_z="1 : 0.5 : 1"
       inkscape:vp_y="0 : 1000 : 0"
       inkscape:vp_x="0 : 0.5 : 1"
       sodipodi:type="inkscape:persp3d" />
    <inkscape:perspective
       id="perspective3855"
       inkscape:persp3d-origin="0.5 : 0.33333333 : 1"
       inkscape:vp_z="1 : 0.5 : 1"
       inkscape:vp_y="0 : 1000 : 0"
       inkscape:vp_x="0 : 0.5 : 1"
       sodipodi:type="inkscape:persp3d" />
    <inkscape:perspective
       id="perspective3909"
       inkscape:persp3d-origin="0.5 : 0.33333333 : 1"
       inkscape:vp_z="1 : 0.5 : 1"
       inkscape:vp_y="0 : 1000 : 0"
       inkscape:vp_x="0 : 0.5 : 1"
       sodipodi:type="inkscape:persp3d" />
    <inkscape:perspective
       id="perspective3950"
       inkscape:persp3d-origin="0.5 : 0.33333333 : 1"
       inkscape:vp_z="1 : 0.5 : 1"
       inkscape:vp_y="0 : 1000 : 0"
       inkscape:vp_x="0 : 0.5 : 1"
       sodipodi:type="inkscape:persp3d" />
    <inkscape:perspective
       id="perspective3972"
       inkscape:persp3d-origin="0.5 : 0.33333333 : 1"
       inkscape:vp_z="1 : 0.5 : 1"
       inkscape:vp_y="0 : 1000 : 0"
       inkscape:vp_x="0 : 0.5 : 1"
       sodipodi:type="inkscape:persp3d" />
    <inkscape:perspective
       id="perspective3994"
       inkscape:persp3d-origin="0.5 : 0.33333333 : 1"
       inkscape:vp_z="1 : 0.5 : 1"
       inkscape:vp_y="0 : 1000 : 0"
       inkscape:vp_x="0 : 0.5 : 1"
       sodipodi:type="inkscape:persp3d" />
    <inkscape:perspective
       id="perspective4016"
       inkscape:persp3d-origin="0.5 : 0.33333333 : 1"
       inkscape:vp_z="1 : 0.5 : 1"
       inkscape:vp_y="0 : 1000 : 0"
       inkscape:vp_x="0 : 0.5 : 1"
       sodipodi:type="inkscape:persp3d" />
    <inkscape:perspective
       id="perspective4837"
       inkscape:persp3d-origin="0.5 : 0.33333333 : 1"
       inkscape:vp_z="1 : 0.5 : 1"
       inkscape:vp_y="0 : 1000 : 0"
       inkscape:vp_x="0 : 0.5 : 1"
       sodipodi:type="inkscape:persp3d" />
    <inkscape:perspective
       id="perspective4971"
       inkscape:persp3d-origin="0.5 : 0.33333333 : 1"
       inkscape:vp_z="1 : 0.5 : 1"
       inkscape:vp_y="0 : 1000 : 0"
       inkscape:vp_x="0 : 0.5 : 1"
       sodipodi:type="inkscape:persp3d" />
    <inkscape:perspective
       id="perspective6216"
       inkscape:persp3d-origin="0.5 : 0.33333333 : 1"
       inkscape:vp_z="1 : 0.5 : 1"
       inkscape:vp_y="0 : 1000 : 0"
       inkscape:vp_x="0 : 0.5 : 1"
       sodipodi:type="inkscape:persp3d" />
    <inkscape:perspective
       id="perspective6764"
       inkscape:persp3d-origin="0.5 : 0.33333333 : 1"
       inkscape:vp_z="1 : 0.5 : 1"
       inkscape:vp_y="0 : 1000 : 0"
       inkscape:vp_x="0 : 0.5 : 1"
       sodipodi:type="inkscape:persp3d" />
    <inkscape:perspective
       id="perspective6817"
       inkscape:persp3d-origin="0.5 : 0.33333333 : 1"
       inkscape:vp_z="1 : 0.5 : 1"
       inkscape:vp_y="0 : 1000 : 0"
       inkscape:vp_x="0 : 0.5 : 1"
       sodipodi:type="inkscape:persp3d" />
    <radialGradient
       gradientUnits="userSpaceOnUse"
       gradientTransform="scale(0.79354273,1.2601716)"
       xlink:href="#linearGradient829"
       id="radialGradient874"
       cx="180.2453"
       cy="198.41902"
       r="101.58017"
       fx="180.2453"
       fy="198.41902" />
    <linearGradient
       id="linearGradient829">
      <stop
         style="stop-color: rgb(255, 255, 255); stop-opacity: 0.341667;"
         offset="0.0000000"
         id="stop830" />
      <stop
         style="stop-color: rgb(255, 255, 255); stop-opacity: 0;"
         offset="1.0000000"
         id="stop831" />
    </linearGradient>
    <radialGradient
       gradientUnits="userSpaceOnUse"
       gradientTransform="scale(1.007004,0.99304475)"
       xlink:href="#linearGradient829"
       id="radialGradient832"
       cx="360.85146"
       cy="167.47372"
       r="46.394721"
       fx="360.85146"
       fy="167.47372" />
    <linearGradient
       id="linearGradient6826">
      <stop
         style="stop-color: rgb(255, 255, 255); stop-opacity: 0.341667;"
         offset="0.0000000"
         id="stop6828" />
      <stop
         style="stop-color: rgb(255, 255, 255); stop-opacity: 0;"
         offset="1.0000000"
         id="stop6830" />
    </linearGradient>
    <linearGradient
       gradientUnits="userSpaceOnUse"
       gradientTransform="scale(0.74491357,1.3424376)"
       xlink:href="#linearGradient855"
       id="linearGradient850"
       x1="465.29425"
       y1="248.24467"
       x2="463.27056"
       y2="405.7687"
       spreadMethod="pad" />
    <linearGradient
       id="linearGradient855">
      <stop
         style="stop-color: rgb(255, 255, 255); stop-opacity: 0;"
         offset="0.0000000"
         id="stop856" />
      <stop
         style="stop-color: rgb(255, 166, 23); stop-opacity: 0.733333;"
         offset="1.0000000"
         id="stop857" />
    </linearGradient>
    <linearGradient
       gradientUnits="userSpaceOnUse"
       gradientTransform="scale(1.4586159,0.68558144)"
       xlink:href="#linearGradient855"
       id="linearGradient854"
       x1="157.80581"
       y1="120.96176"
       x2="155.40575"
       y2="231.63491" />
    <linearGradient
       id="linearGradient6837">
      <stop
         style="stop-color: rgb(255, 255, 255); stop-opacity: 0;"
         offset="0.0000000"
         id="stop6839" />
      <stop
         style="stop-color: rgb(255, 166, 23); stop-opacity: 0.733333;"
         offset="1.0000000"
         id="stop6841" />
    </linearGradient>
    <inkscape:perspective
       id="perspective6928"
       inkscape:persp3d-origin="0.5 : 0.33333333 : 1"
       inkscape:vp_z="1 : 0.5 : 1"
       inkscape:vp_y="0 : 1000 : 0"
       inkscape:vp_x="0 : 0.5 : 1"
       sodipodi:type="inkscape:persp3d" />
    <inkscape:perspective
       id="perspective10781"
       inkscape:persp3d-origin="0.5 : 0.33333333 : 1"
       inkscape:vp_z="1 : 0.5 : 1"
       inkscape:vp_y="0 : 1000 : 0"
       inkscape:vp_x="0 : 0.5 : 1"
       sodipodi:type="inkscape:persp3d" />
    <inkscape:perspective
       id="perspective10806"
       inkscape:persp3d-origin="0.5 : 0.33333333 : 1"
       inkscape:vp_z="1 : 0.5 : 1"
       inkscape:vp_y="0 : 1000 : 0"
       inkscape:vp_x="0 : 0.5 : 1"
       sodipodi:type="inkscape:persp3d" />
    <inkscape:perspective
       id="perspective10878"
       inkscape:persp3d-origin="0.5 : 0.33333333 : 1"
       inkscape:vp_z="1 : 0.5 : 1"
       inkscape:vp_y="0 : 1000 : 0"
       inkscape:vp_x="0 : 0.5 : 1"
       sodipodi:type="inkscape:persp3d" />
    <inkscape:perspective
       id="perspective10919"
       inkscape:persp3d-origin="0.5 : 0.33333333 : 1"
       inkscape:vp_z="1 : 0.5 : 1"
       inkscape:vp_y="0 : 1000 : 0"
       inkscape:vp_x="0 : 0.5 : 1"
       sodipodi:type="inkscape:persp3d" />
    <clipPath
       id="clipoutline2"
       clipPathUnits="userSpaceOnUse">
      <path
         inkscape:connector-curvature="0"
         d="m 55.8,12 0.76,0.16 c 8.84,-2.94 28.68,8.64 24.26,18.96 -1.12,1.62 -0.93,4.5 0.42,6.31 L 56.43,62.25 c -1.39,-1.39 -4.48,-1.36 -5.9,0 L 9.5,101.63 c -3.74,3.59 -0.8,6.64 0.78,8.25 l 7.36,7.36 c 1.61,1.6 5.86,3.76 8.88,0.56 L 65.24,76.99 c 1.35,-1.42 1.36,-4.47 0,-5.87 0,0 0.01,-0.02 0,-0.02 L 90.15,46.2 c 2.63,2.37 5.113827,2.574854 7.47,1.93 4.55057,-1.245432 7.08725,3.206643 9.81,6.46 l -1.23,1.21 c -1.82,1.84 -1.65,4.94 0.39,6.98 2.04,2.04 5.15,2.21 6.97,0.39 l 8.14,-8.13 c 1.82,-1.84 1.65,-4.94 -0.4,-6.97 -1.84,-1.85 -4.51,-2.09 -6.37,-0.77 -5.58,-6.26 -2.65,-7.2 -10.01,-15.35 L 91.13,17.86 C 81.2,8.12 68.3,8.13 55.8,12 z"
         id="outline2" />
    </clipPath>
  </defs>
  <g
     id="g1327">
    <path
       d="M 66.275,1.768 C 24.94,1.768 1.704,23.139 1.704,66.804 L 1.704,516.927 C 1.704,557.771 22.599,579.156 63.896,579.156 L 515.92,579.156 C 557.227,579.156 578.149,558.841 578.149,516.927 L 578.149,66.804 C 578.149,24.203 557.227,1.768 514.628,1.768 C 514.624,1.768 66.133,1.625 66.275,1.768 z "
       style="fill:#111;stroke:#eee;stroke-width:3.40799999"
       id="path1329" />
  </g>
  <g
     id="g3338"
     transform="matrix(1.3973279,-0.2437849,0.2437849,1.3973279,-185.07402,-56.183307)" />
  <path
     style="fill:#ffffff"
     d="M 77.050781 361.10742 L 77.050781 442.66016 L 412.15234 442.66016 L 446.87305 423.27344 L 508.15625 423.27344 L 508.15625 380.49023 L 448.5 380.49023 L 413.23828 361.10742 L 77.050781 361.10742 z M 372.44727 370.93945 L 392.44727 370.93945 L 392.44727 392.00977 L 413.51758 392.00977 L 413.51758 412.00977 L 392.44727 412.00977 L 392.44727 433.08203 L 372.44727 433.08203 L 372.44727 412.00977 L 351.375 412.00977 L 351.375 392.00977 L 372.44727 392.00977 L 372.44727 370.93945 z M 104.54297 392.00977 L 166.68555 392.00977 L 166.68555 412.00977 L 104.54297 412.00977 L 104.54297 392.00977 z "
     id="rect2227" />
  <path
     id="path2233"
     d="m 222.12251,275.19514 c 27.49867,0 49.88959,-22.27214 49.88959,-49.77081 0,-5.22653 -0.83149,-10.21549 -2.3163,-14.96688 34.09123,-0.59392 61.47111,-28.44895 61.47111,-62.65896 0,-34.44758 -27.61745,-62.302603 -61.94625,-62.777742 l 0,18.114672 c 24.35088,0.35636 43.95036,20.19341 43.95036,44.66307 0,24.58845 -20.07462,44.66307 -44.66307,44.66307 -3.14779,0 -6.05802,-0.35635 -8.90885,-0.95028 -0.8315,-0.23757 -1.72238,-0.35635 -2.55388,-0.35635 -5.82045,0 -10.57184,4.75139 -10.57184,10.57184 0,2.19752 0.71271,4.15747 1.84116,5.93924 3.38537,5.10774 5.4641,11.16577 5.4641,17.75832 0,17.40197 -14.13538,31.65614 -31.65613,31.65614 l -65.45041,0 c -24.82601,0 -44.78185,20.07462 -44.78185,44.78185 l -0.11878,35.75421 18.23346,0 0,-35.69482 c 0,-14.72931 11.93786,-26.66718 26.66717,-26.66718 l 65.45041,0 z"
     inkscape:connector-curvature="0"
     style="fill:#ffffff" />
  <path
     id="path2235"
     d="m 207.63077,205.94363 c -6.71134,-8.67129 -10.69063,-19.4807 -10.69063,-31.29978 0,-28.50834 23.10363,-51.61198 51.61197,-51.61198 l 4.03869,0 0,-18.23346 -4.03869,0 c -38.48626,0 -69.84543,31.29978 -69.84543,69.84544 0,10.33427 2.3163,20.19341 6.35498,28.98348 l -12.76936,-0.11879 c -52.32468,0 -94.671449,42.46555 -94.671449,94.67145 l 0,39.43654 18.23346,0 0,-39.43654 c 0,-42.22798 34.210009,-76.43799 76.437989,-76.43799 l 26.72657,0 c 5.58288,0 10.21549,-4.6326 10.21549,-10.33427 0,-2.07873 -0.71271,-3.80111 -1.60359,-5.4641 z"
     inkscape:connector-curvature="0"
     style="fill:#ffffff" />
</svg>

<svg width="580" height="580" viewBox="0 0 580 580" fill="none" xmlns="http://www.w3.org/2000/svg">
<g clip-path="url(#clip0)">
<path d="M66.2751 1.76766C24.9401 1.76766 1.7041 23.1387 1.7041 66.8037V516.927C1.7041 557.771 22.5991 579.156 63.8961 579.156H515.92C557.227 579.156 578.149 558.841 578.149 516.927V66.8037C578.149 24.2027 557.227 1.76766 514.628 1.76766C514.624 1.76766 66.1331 1.62466 66.2751 1.76766Z" fill="#111111" stroke="#EEEEEE" stroke-width="3.408"/>
<path d="M77.0508 361.107V442.66H412.152L446.873 423.273H508.156V380.49H448.5L413.238 361.107H77.0508ZM372.447 370.939H392.447V392.01H413.518V412.01H392.447V433.082H372.447V412.01H351.375V392.01H372.447V370.939ZM104.543 392.01H166.686V412.01H104.543V392.01Z" fill="white"/>
<path d="M222.123 275.195C249.621 275.195 272.012 252.923 272.012 225.424C272.012 220.198 271.181 215.209 269.696 210.457C303.787 209.863 331.167 182.008 331.167 147.798C331.167 113.351 303.549 85.4956 269.221 85.0205V103.135C293.572 103.492 313.171 123.329 313.171 147.798C313.171 172.387 293.096 192.461 268.508 192.461C265.36 192.461 262.45 192.105 259.599 191.511C258.768 191.273 257.877 191.155 257.045 191.155C251.225 191.155 246.473 195.906 246.473 201.727C246.473 203.924 247.186 205.884 248.315 207.666C251.7 212.774 253.779 218.832 253.779 225.424C253.779 242.826 239.643 257.08 222.123 257.08H156.672C131.846 257.08 111.89 277.155 111.89 301.862L111.771 337.616H130.005V301.921C130.005 287.192 141.943 275.254 156.672 275.254H222.123V275.195Z" fill="white"/>
<path d="M207.631 205.944C200.92 197.273 196.94 186.463 196.94 174.644C196.94 146.136 220.044 123.032 248.552 123.032H252.591V104.799H248.552C210.066 104.799 178.707 136.099 178.707 174.644C178.707 184.979 181.023 194.838 185.062 203.628L172.293 203.509C119.968 203.509 77.6211 245.975 77.6211 298.18V337.617H95.8546V298.18C95.8546 255.952 130.065 221.742 172.293 221.742H199.019C204.602 221.742 209.235 217.11 209.235 211.408C209.235 209.329 208.522 207.607 207.631 205.944V205.944Z" fill="white"/>
</g>
<defs>
<clipPath id="clip0">
<path d="M0 0H580V580H0V0Z" fill="white"/>
</clipPath>
</defs>
</svg>
